modules/zondicons/icons/reply-all.svg

<?xml version="1.0" encoding="UTF-8" standalone="no"?>
<svg width="20px" height="20px" viewBox="0 0 20 20" version="1.1" xmlns="http://www.w3.org/2000/svg" xmlns:xlink="http://www.w3.org/1999/xlink">
    <!-- Generator: Sketch 3.7.2 (28276) - http://www.bohemiancoding.com/sketch -->
    <title>reply-all</title>
    <desc>Created with Sketch.</desc>
    <defs></defs>
    <g id="Page-1" stroke="none" stroke-width="1" fill="none" fill-rule="evenodd">
        <g id="reply-all" fill="#000000">
            <path d="M10,8 C15.0382877,8 19.2063237,11.7259902 19.8989244,16.5727869 C17.5144503,13.7746053 13.9644658,12 10,12 L10,16 L4,10 L10,4 L10,8 Z M6,6 L6,4 L0,10 L6,16 L6,14 L2,10 L6,6 Z" id="Combined-Shape"></path>
        </g>
    </g>
</svg>

<svg width="20" height="20" viewBox="0 0 20 20" xmlns="http://www.w3.org/2000/svg"><path d="M10 8c5.038 0 9.206 3.726 9.899 8.573A12.971 12.971 0 0 0 10 12v4l-6-6 6-6v4zM6 6V4l-6 6 6 6v-2l-4-4 4-4z" fill="#000" fill-rule="evenodd"/></svg>
